img/info-cinco.svg

<?xml version="1.0" encoding="UTF-8" standalone="no"?>
<svg width="65px" height="81px" viewBox="0 0 65 81" version="1.1" xmlns="http://www.w3.org/2000/svg" xmlns:xlink="http://www.w3.org/1999/xlink" xmlns:sketch="http://www.bohemiancoding.com/sketch/ns">
    <!-- Generator: Sketch 3.5.1 (25234) - http://www.bohemiancoding.com/sketch -->
    <title>info-cinco</title>
    <desc>Created with Sketch.</desc>
    <defs></defs>
    <g id="Page-1" stroke="none" stroke-width="1" fill="none" fill-rule="evenodd" sketch:type="MSPage">
        <g id="info-cinco" sketch:type="MSLayerGroup" transform="translate(0.000000, -1.000000)" fill="#2B3E50">
            <path d="M5.04,48.39 L4.75,49.61 C4.62425919,50.23414 5.01205569,50.8466822 5.63,51 L8.84,51.76 C9.47428711,51.9040363 10.1067073,51.5121139 10.26,50.88 L10.55,49.65 C14.761069,49.1967409 18.028311,45.7673117 18.2771819,41.5392378 C18.5260527,37.3111638 15.6837013,33.5221147 11.5548863,32.5779574 C7.4260714,31.6338001 3.2194067,33.8109145 1.60592543,37.7269359 C-0.00755584018,41.6429574 1.44445512,46.1515624 5.04,48.39 L5.04,48.39 Z M9.67,33.66 C13.7569071,33.66 17.07,36.9730929 17.07,41.06 C17.07,45.1469071 13.7569071,48.46 9.67,48.46 C5.58309285,48.46 2.27,45.1469071 2.27,41.06 C2.26999627,36.9769949 5.57699864,33.6655176 9.66,33.66 L9.67,33.66 Z" id="Shape" sketch:type="MSShapeGroup"></path>
            <path d="M58.18,27.7 C57.8021256,29.0140402 57.351429,30.306037 56.83,31.57 C51.83,42.4 42.09,42.65 42.09,42.65 C42.09,42.65 32.33,42.41 27.35,31.58 C26.8363948,30.3288299 26.3923833,29.0502106 26.02,27.75 C25.3842447,28.2978989 24.6263987,28.6853948 23.81,28.88 C23.1594536,29.0622214 22.485384,29.1464801 21.81,29.13 C24.39,36.36 28.81,44.81 39.86,47 C40.0918235,47.9290434 40.396088,48.8384935 40.77,49.72 L43.29,59.58 C45.73,69.12 35.23,77.48 25.39,77.48 C15.55,77.48 5.39,69.2 7.49,59.58 L8.93,52.88 C7.55648742,52.8673783 6.20079765,52.5676278 4.95,52 L3.32,59.61 C0.78,71.45 13.23,81.61 25.32,81.61 C37.41,81.61 50.32,71.33 47.32,59.61 L45.5,52.46 C45.3,51.09 44.94,49.29 44.38,46.99 L44.38,46.99 C55.38,44.78 59.75,36.41 62.33,29.21 C61.7069139,29.2189222 61.0852333,29.148353 60.48,29 C59.6122754,28.7766575 58.818882,28.3282178 58.18,27.7 L58.18,27.7 Z" id="Shape" sketch:type="MSShapeGroup"></path>
            <path d="M61.1,19.59 C60.96,20.19 59.64,25.32 59.28,26.59 C59.2512869,26.6704348 59.203204,26.7425591 59.14,26.8 C59.6068477,27.22546 60.1806886,27.5158373 60.8,27.64 C61.2737554,27.7577417 61.7628561,27.8015921 62.25,27.77 C62.2141324,27.6697791 62.2141324,27.5602209 62.25,27.46 C63.3356183,23.9665073 64.0823962,20.3766151 64.48,16.74 C64.48,10.34 59.1,7.09 57.9,6.45 C57.9951911,6.78035945 57.9740091,7.13339257 57.84,7.45 L57.42,8.45 C57.2521811,8.85991722 56.9117708,9.17470521 56.49,9.31 C61.57,12.7 61.95,16 61.1,19.59 L61.1,19.59 Z" id="Shape" sketch:type="MSShapeGroup"></path>
            <path d="M21.97,27.69 C22.477037,27.7262308 22.9866165,27.6823597 23.48,27.56 C24.0490924,27.4339611 24.5823632,27.1809993 25.04,26.82 C24.9636543,26.7559347 24.9051052,26.6732773 24.87,26.58 C24.5,25.32 23.19,20.18 23.05,19.58 C22.24,16 22.62,12.7 27.68,9.33 C27.2982926,9.1798233 26.9947371,8.87988155 26.84,8.5 L26.42,7.5 C26.290995,7.15844188 26.290995,6.78155812 26.42,6.44 C25.51,6.91 19.73,10.17 19.73,16.79 C20.1367706,20.4277082 20.8936112,24.0176777 21.99,27.51 C21.9971827,27.57074 21.9903407,27.6323182 21.97,27.69 L21.97,27.69 Z" id="Shape" sketch:type="MSShapeGroup"></path>
            <circle id="Oval" sketch:type="MSShapeGroup" cx="9.67" cy="41.06" r="4.86"></circle>
            <path d="M28.09,7.78 C28.2554342,8.21359829 28.5872283,8.563142 29.0116248,8.75092805 C29.4360212,8.9387141 29.9178496,8.94918029 30.35,8.78 L32.25,8 C33.6322133,8.65861592 35.2783174,8.38725203 36.3759881,7.31982176 C37.4736589,6.25239148 37.790891,4.61450844 37.1711359,3.21443985 C36.5513807,1.81437127 35.1256307,0.948037664 33.597469,1.04295984 C32.0693073,1.13788202 30.7617283,2.17399708 30.32,3.64 L28.57,4.35 C28.1364017,4.51543425 27.786858,4.84722829 27.5990719,5.27162476 C27.4112859,5.69602123 27.4008197,6.17784957 27.57,6.61 L28.09,7.78 Z M34.77,1.95 C35.21,1.77 36.15,2.35 36.56,3.37 C36.97,4.39 36.71,5.45 36.26,5.64 C35.81,5.83 35.12,5.14 34.71,4.12 C34.3,3.1 34.32,2.13 34.77,1.95 L34.77,1.95 Z" id="Shape" sketch:type="MSShapeGroup"></path>
            <path d="M48.77,8.05 C49.7131843,8.44876362 50.7809206,8.43060485 51.71,8 L53.6,8.77 C54.0321504,8.93918029 54.5139788,8.9287141 54.9383752,8.74092805 C55.3627717,8.553142 55.6945658,8.20359829 55.86,7.77 L56.35,6.57 C56.5191803,6.13784957 56.5087141,5.65602123 56.3209281,5.23162476 C56.133142,4.80722829 55.7835983,4.47543425 55.35,4.31 L53.6,3.6 C53.1143144,1.95472523 51.5510614,0.867539719 49.8396079,0.984784204 C48.1281543,1.10202869 46.7277668,2.39224074 46.4709873,4.08837867 C46.2142079,5.78451661 47.1699428,7.43142364 48.77,8.05 L48.77,8.05 Z M47.4,3.37 C47.81,2.37 48.75,1.77 49.19,1.95 C49.63,2.13 49.66,3.1 49.25,4.12 C48.84,5.14 48.14,5.81 47.7,5.63 C47.26,5.45 46.99,4.38 47.4,3.37 L47.4,3.37 Z" id="Shape" sketch:type="MSShapeGroup"></path>
        </g>
    </g>
</svg>

<svg width="65" height="81" viewBox="0 0 65 81" xmlns="http://www.w3.org/2000/svg"><title>info-cinco</title><g transform="translate(0 -1)" fill="#2B3E50" fill-rule="evenodd"><path d="M5.04 48.39l-.29 1.22A1.19 1.19 0 0 0 5.63 51l3.21.76a1.19 1.19 0 0 0 1.42-.88l.29-1.23a8.67 8.67 0 1 0-5.51-1.26zm4.63-14.73a7.4 7.4 0 1 1-.01 0h.01z"/><path d="M58.18 27.7a36.86 36.86 0 0 1-1.35 3.87c-5 10.83-14.74 11.08-14.74 11.08s-9.76-.24-14.74-11.07a36.68 36.68 0 0 1-1.33-3.83 5.25 5.25 0 0 1-2.21 1.13 6.8 6.8 0 0 1-2 .25c2.58 7.23 7 15.68 18.05 17.87.232.929.536 1.838.91 2.72l2.52 9.86c2.44 9.54-8.06 17.9-17.9 17.9-9.84 0-20-8.28-17.9-17.9l1.44-6.7A9.85 9.85 0 0 1 4.95 52l-1.63 7.61c-2.54 11.84 9.91 22 22 22s25-10.28 22-22l-1.82-7.15c-.2-1.37-.56-3.17-1.12-5.47 11-2.21 15.37-10.58 17.95-17.78a7.33 7.33 0 0 1-1.85-.21 5.09 5.09 0 0 1-2.3-1.3zM61.1 19.59c-.14.6-1.46 5.73-1.82 7a.52.52 0 0 1-.14.21 3.48 3.48 0 0 0 1.66.84 4.74 4.74 0 0 0 1.45.13.46.46 0 0 1 0-.31 57 57 0 0 0 2.23-10.72c0-6.4-5.38-9.65-6.58-10.29a1.5 1.5 0 0 1-.06 1l-.42 1a1.5 1.5 0 0 1-.93.86c5.08 3.39 5.46 6.69 4.61 10.28zM21.97 27.69a4.84 4.84 0 0 0 1.51-.13 3.87 3.87 0 0 0 1.56-.74.58.58 0 0 1-.17-.24c-.37-1.26-1.68-6.4-1.82-7-.81-3.58-.43-6.88 4.63-10.25a1.5 1.5 0 0 1-.84-.83l-.42-1a1.5 1.5 0 0 1 0-1.06c-.91.47-6.69 3.73-6.69 10.35a56.9 56.9 0 0 0 2.26 10.72.4.4 0 0 1-.02.18z"/><circle cx="9.67" cy="41.06" r="4.86"/><path d="M28.09 7.78a1.74 1.74 0 0 0 2.26 1l1.9-.78a3.66 3.66 0 1 0-1.93-4.36l-1.75.71a1.74 1.74 0 0 0-1 2.26l.52 1.17zm6.68-5.83c.44-.18 1.38.4 1.79 1.42.41 1.02.15 2.08-.3 2.27-.45.19-1.14-.5-1.55-1.52-.41-1.02-.39-1.99.06-2.17zM48.77 8.05A3.63 3.63 0 0 0 51.71 8l1.89.77a1.74 1.74 0 0 0 2.26-1l.49-1.2a1.74 1.74 0 0 0-1-2.26L53.6 3.6a3.66 3.66 0 1 0-4.83 4.45zM47.4 3.37c.41-1 1.35-1.6 1.79-1.42.44.18.47 1.15.06 2.17s-1.11 1.69-1.55 1.51c-.44-.18-.71-1.25-.3-2.26z"/></g></svg>
